!!!!SEGMENT: Mou2009-Moriens_lux.krn
!!!id: Mou2009
!!!AGN: Motet
!!!SCT: Sherr (1989)
!!!voices: 5
!!!COM: Jean Mouton
!!!OTL: Moriens lux
**kern	**kern	**kern	**kern	**kern
*part5	*part4	*part3	*part2	*part1
*staff5	*staff4	*staff3	*staff2	*staff1
*I"Bassus II	*I"Bassus I	*I"Tenor	*I"Altus	*I"Superius
*I'B. II	*I'B. I	*I'T	*I'A	*I'S
*clefF4	*clefF4	*clefGv2	*clefGv2	*clefG2
*k[]	*k[]	*k[]	*k[]	*k[]
*C:	*C:	*C:	*C:	*C:
*M2/1	*M2/1	*M2/1	*M2/1	*M2/1
*met(C|)	*met(C|)	*met(C|)	*met(C|)	*met(C|)
!!section: Prima pars: Moriens lux
!!!OMD: Prima pars: Moriens lux
=1	=1	=1	=1	=1
0r	0r	1.d	0r	1.a
.	.	2c	.	2a
=2	=2	=2	=2	=2
0r	0r	2.d	0r	1a
.	.	4c	.	.
.	.	1B	.	1d
=3	=3	=3	=3	=3
1.D	0r	2.A	0r	1.f
.	.	4G	.	.
.	.	2A	.	.
2C	.	2c	.	2e
=4	=4	=4	=4	=4
2.D	0r	2B	0r	1d
.	.	1A	.	.
4C	.	.	.	.
1BB	.	.	.	1d
.	.	2G#i	.	.
=5	=5	=5	=5	=5
0AA	0r	0A	1.e	[0c
.	.	.	2e	.
=6	=6	=6	=6	=6
0r	0r	1r	1e	0c]
.	.	[1e	1A	.
=7	=7	=7	=7	=7
1.A	0r	2e]	0e	1r
.	.	2c	.	.
.	.	[1c	.	[1cc
2A	.	.	.	.
=8	=8	=8	=8	=8
1A	0r	1c]	1e	2cc]
.	.	.	.	2b
1D	.	1d	[1f	[1a
=9	=9	=9	=9	=9
1.F	[0A	1c	1f]	2a]
.	.	.	.	2g
.	.	1r	1c	[1f
2E	.	.	.	.
=10	=10	=10	=10	=10
1D	0A]	0F	0d	1f]
1D	.	.	.	2r
.	.	.	.	2d
=11	=11	=11	=11	=11
0C	[0c	1G	1r	2.e
.	.	.	.	4f
.	.	1G	[1e	1g
=12	=12	=12	=12	=12
1r	0c]	0A	2e]	1c
.	.	.	2e	.
1AA	.	.	1e	1r
=13	=13	=13	=13	=13
0D	[0d	0F	1A	1r
.	.	.	[1f	[1a
=14	=14	=14	=14	=14
1D	0d]	1r	1f]	2a]
.	.	.	.	2a
1D	.	1D	1f	1a
=15	=15	=15	=15	=15
1r	[0B	1E	1e	[0g
[1GG	.	[1G	1d	.
=16	=16	=16	=16	=16
1GG]	0B]	1G]	0d	0g]
1GG	.	1G	.	.
=17	=17	=17	=17	=17
1.C	[0c	2.E	0e	1r
.	.	4F	.	.
.	.	1G	.	[1g
2D	.	.	.	.
=18	=18	=18	=18	=18
1E	0c]	1C	1e	1g]
[1F	.	1r	1A	1f
=19	=19	=19	=19	=19
1F]	[0A	1D	1f	1.a
1C	.	1E	[1e	.
.	.	.	.	2g
=20	=20	=20	=20	=20
0D	0A]	0F	2e]	1f
.	.	.	4d	.
.	.	.	4c	.
.	.	.	1d	1r
=21	=21	=21	=21	=21
1r	[0G	0E	[0e	1r
[1C	.	.	.	[1g
=22	=22	=22	=22	=22
1C]	0G]	1r	0e]	2g]
.	.	.	.	2g
1C	.	1E	.	1g
=23	=23	=23	=23	=23
0C	0r	0G	1.c	[0e
.	.	.	2c	.
=24	=24	=24	=24	=24
1AA	0r	1A	1c	0e]
1E	.	1G	1B	.
=25	=25	=25	=25	=25
1F	0r	2.A	1d	0r
.	.	4B	.	.
2E	.	2c	1e	.
[2G	.	[2B	.	.
=26	=26	=26	=26	=26
4G]	0r	4B]	2d	0r
4F	.	4A	.	.
2E	.	1G	1c	.
1D	.	.	.	.
.	.	2F	2B	.
=27	=27	=27	=27	=27
0C	[0E	0G	1c	0g
.	.	.	1r	.
=28	=28	=28	=28	=28
0AA	0E]	0r	0c	1a
.	.	.	.	1a
=29	=29	=29	=29	=29
0GG	[0G	0D	1d	0b
.	.	.	1d	.
=30	=30	=30	=30	=30
1C	0G]	1C	0e	1r
1r	.	1C	.	1cc
=31	=31	=31	=31	=31
0r	[0A	0F	1r	2cc
.	.	.	.	2cc
.	.	.	1f	2cc
.	.	.	.	2cc
=32	=32	=32	=32	=32
0D	0A]	0r	2f	1a
.	.	.	2f	.
.	.	.	2f	1r
.	.	.	2f	.
=33	=33	=33	=33	=33
1D	[0F	1.A	0d	0r
[1D	.	.	.	.
.	.	2A	.	.
=34	=34	=34	=34	=34
2D]	0F]	2.A	0r	0r
4C	.	.	.	.
4BB	.	4G	.	.
1AA	.	4A	.	.
.	.	4B	.	.
.	.	[2c	.	.
=35	=35	=35	=35	=35
0GG	[0G	2c]	0r	1d
.	.	4B	.	.
.	.	4A	.	.
.	.	1B	.	2d
.	.	.	.	2d
=36	=36	=36	=36	=36
1C	0G]	1r	1r	2.e
.	.	.	.	4f
2C	.	1c	[1G	[1g
2C	.	.	.	.
=37	=37	=37	=37	=37
2C	[0E	2c	1G]	1g]
2C	.	2c	.	.
[1AA	.	2c	1A	1r
.	.	2c	.	.
=38	=38	=38	=38	=38
1AA]	0E]	1A	1c	1r
1r	.	1G	2B	1e
.	.	.	2c	.
=39	=39	=39	=39	=39
1r	[0D	1A	1.d	1f
1GG	.	1B	.	1g
.	.	.	2e	.
=40	=40	=40	=40	=40
1D	0D]	0A	1f	1a
1F	.	.	1d	2r
.	.	.	.	2a
=41	=41	=41	=41	=41
0E	0r	1r	0e	2g
.	.	.	.	2e
.	.	1c	.	[1g
=42	=42	=42	=42	=42
1E	0r	2B	0r	1g]
.	.	2G	.	.
2D	.	2A	.	1f
2BB-X	.	[2B-X	.	.
=43	=43	=43	=43	=43
1C	0r	4B-]	1e	1e
.	.	4A	.	.
.	.	1A	.	.
1BB	.	.	2d	1r
.	.	2G#i	2B	.
=44	=44	=44	=44	=44
[0AA	0E	0A	1.c	0r
.	.	.	2B	.
=45	=45	=45	=45	=45
1AA]	0E	1r	2A	1c
.	.	.	2A	.
1r	.	2r	1G	1g
.	.	2E	.	.
=46	=46	=46	=46	=46
1GG	0D	1G	1d	1b
1D	.	2.A	1f	1a
.	.	4B	.	.
=47	=47	=47	=47	=47
1E	[0G	2c	0e	1r
.	.	2B	.	.
[1C	.	1c	.	1g
=48	=48	=48	=48	=48
1C]	0G]	1e	2r	1cc
.	.	.	2c	.
1r	.	2d	1d	1b
.	.	2B	.	.
=49	=49	=49	=49	=49
1r	0F	1.c	1.f	1.a
[1D	.	.	.	.
.	.	2B	2e	2g
=50	=50	=50	=50	=50
2D]	0F	2.A	2d	2f
2AA	.	.	2c	1e
.	.	4G	.	.
1D	.	2A	1d	.
.	.	2B	.	2d
=51	=51	=51	=51	=51
1.C	[0E	0c	1r	0e
.	.	.	1G	.
2BB	.	.	.	.
=52	=52	=52	=52	=52
0AA	0E]	0r	1c	1e
.	.	.	2.c	1a
.	.	.	4B	.
=53	=53	=53	=53	=53
0r	0r	1r	2c	2g
.	.	.	1d	2f
.	.	[1A	.	1e
.	.	.	2c	.
=54	=54	=54	=54	=54
1D	0r	1A]	0d	1d
1G	.	1B	.	1r
=55	=55	=55	=55	=55
2.G	0r	1.d	0r	0r
4F	.	.	.	.
2G	.	.	.	.
[2A	.	2c	.	.
=56	=56	=56	=56	=56
2A]	0r	1B	1.e	0r
2G#i	.	.	.	.
[1A	.	1A	.	.
.	.	.	2e	.
=57	=57	=57	=57	=57
1A]	0A	0r	1e	1.cc
[1F	.	.	[1f	.
.	.	.	.	2b
=58	=58	=58	=58	=58
2F]	0c	1r	1f]	1a
2F	.	.	.	.
1E	.	1G	1r	1g
=59	=59	=59	=59	=59
1.D	0d	1A	1.f	0r
.	.	1A	.	.
2D	.	.	2f	.
=60	=60	=60	=60	=60
2.E	0B	1G	1e	1.g
4F	.	.	.	.
1G	.	1r	1d	.
.	.	.	.	2g
=61	=61	=61	=61	=61
1C	0c	1r	0r	1g
1r	.	[1F	.	1a
=62	=62	=62	=62	=62
0r	0A	2F]	1.f	1r
.	.	2F	.	.
.	.	1F	.	[1cc
.	.	.	2f	.
=63	=63	=63	=63	=63
0r	0G	1C	1e	2cc]
.	.	.	.	2cc
.	.	1r	[1d	1b
=64	=64	=64	=64	=64
1r	0r	1r	1d]	1a
1C	.	[1c	[1e	1r
=65	=65	=65	=65	=65
1E	0r	2c]	2e]	1g
.	.	2c	2e	.
1E	.	1B	1e	2g
.	.	.	.	2g
=66	=66	=66	=66	=66
0AA	0E	0A	0c	1a
.	.	.	.	1cc
=67	=67	=67	=67	=67
0r	0G	1d	0r	0b
.	.	1e	.	.
=68	=68	=68	=68	=68
1AA	0A	2e	1c	2r
.	.	2.e	.	2.a
2AA	.	.	2c	.
.	.	4d	.	4g
2AA	.	[2c	2c	2e
=69	=69	=69	=69	=69
1D	0F	2c]	1d	1f
.	.	4B	.	.
.	.	4A	.	.
1D	.	1B	1f	1d
=70	=70	=70	=70	=70
1.C	0G	0c	0e	1r
.	.	.	.	1g
2C	.	.	.	.
=71	=71	=71	=71	=71
1C	0E	1r	1c	2g
.	.	.	.	2g
1C	.	1G	2c	[1g
.	.	.	2c	.
=72	=72	=72	=72	=72
1GG	0D	2G	0d	1g]
.	.	2G	.	.
1r	.	1A	.	1f
=73	=73	=73	=73	=73
1r	0r	1c	1e	1.g
1GG	.	[1B	1d	.
.	.	.	.	2f
=74	=74	=74	=74	=74
2GG	1r	1B]	1g	2e
2GG	.	.	.	2d
1AA	1E	1A	2e	1c
.	.	.	[2c	.
=75	=75	=75	=75	=75
1C	1E	2.G	4c]	1g
.	.	.	4d	.
.	.	.	4e	.
.	.	4A	4c	.
1BB	1D	4B	2.d	1r
.	.	4c	.	.
.	.	[2d	.	.
.	.	.	4c	.
=76	=76	=76	=76	=76
1r	0G	4d]	4B	1g
.	.	4c	4A	.
.	.	4B	1d	.
.	.	4A	.	.
1GG	.	1B	.	2g
.	.	.	2e	2g
=77	=77	=77	=77	=77
1D	1F	1A	2f	1a
.	.	.	1e	.
1D	1F	1r	.	2.a
.	.	.	2d	.
.	.	.	.	4b
=78	=78	=78	=78	=78
1.C	[0El	1G	[0el	1cc
.	.	2G	.	[1cc
2BB	.	2G	.	.
=79	=79	=79	=79	=79
2.AA	0E_	1A	0e_	2cc]
.	.	.	.	2b
4GG	.	.	.	.
1AA	.	1c	.	1a
=80	=80	=80	=80	=80
00EEl	00E]	00Bl	00e]	00gl
==	==	==	==	==
*-	*-	*-	*-	*-
!!!system-decoration: [*]
!!!RDF**kern: i = editorial accidental
!!!RDF**kern: l = terminal long
!!!ENC: Benjamin Ory
!!!END: 2021/4/21
!!!EED: Benjamin Ory
!!!EEV: 2021/05/02
!!!YEC: Copyright 2021 Benjamin Ory, All Rights Reserved
!!!ONB: Translated from MusicXML on 2021/05/02
